X: 723
T: the Linen Cap   #2
R: reel
%S: s:4 b:16(4+4+4+4)
B: Francis O'Neill: "The Dance Music of Ireland" (1907) #723
Z: Frank Nordberg - http://www.musicaviva.com
F: http://www.musicaviva.com/abc/tunes/ireland/oneill-1001/0723/oneill-1001-0723-1.abc
M: C|
L: 1/8
K: A
"^A"[|]g | a2(ed) cdec | Bcde [1 fBBg | a2(ed) cdec | dfed cAA :|[2 fefg | agae faec | dfed cA A |]
"^B"|: B | cAEA   cdec | Bcde [1 fBBd | cAEA   cdec | dfed cAA :|[2 fefg | agae faec | dfed cA A |]
